!!!!SEGMENT: 059-1-BR-003.krn
!!!COM: Chopin, Fryderyk
!!!OTL: Mazurka No. 3
!!!OPS: Op. 59
!!!PTL: 3 MAZURKAS POUR PIANO
!!!PPR: Brandus
!!!PPP: Paris
!!!NIFC-rismID: 1001007671
!!!NIFC-shelfmark: PL-Wbfc 3683/n
!!!OMD: No. 5.
!!!OMD: PIANO.
!!!OMD: Vivace.
**kern	**kern	**dynam
*staff2	*staff1	*staff1/2
*clefF4	*clefG2	*clefG2
*k[f#c#g#]	*k[f#c#g#]	*k[f#c#g#]
*f#:	*f#:	*f#:
*M3/4	*M3/4	*M3/4
*MM180	*MM180	*MM180
4r	(4c#	f<
=1	=1	=1
*ped	*	*
4FFF#	4.f#	.
4c# 4A 4C#	.	.
.	8g#L	.
4c# 4A 4C#	8a	.
*Xped	*	*
.	.	.
.	8b#J	.
.	.	[
=2	=2	=2
*ped	*	*
!	!LO:TUP:a	!
4FF#	12ddL	.
.	12ee	.
.	12ddJ	.
4f# 4c# 4A	4cc#)	.
4f# 4c# 4A	(4ff#	.
*Xped	*	*
.	.	.
=3	=3	=3
*ped	*	*
!	!LO:TUP:a	!
4F#	12cc#L	.
.	12dd	.
.	12cc#J	.
4f# 4d 4B	4b)	.
4f# 4d 4B	(4ff#	.
*Xped	*	*
.	.	.
=4	=4	=4
*ped	*	*
!	!LO:TUP:a	!
4FF#	12bL	.
.	12cc#	.
.	12bJ	.
4f# 4c# 4A	4a\)	.
4c# 4A 4C#	(4cc#	.
*Xped	*	*
.	.	.
!!LO:LB:g=original
=5	=5	=5
*ped	*	*
!	!LO:TUP:a	!
4CC#	12aL\	.
.	12b	.
.	12aJ	.
4B 4E# 4C#	4g#\)	.
4B 4E# 4C#	(4cc#	.
*Xped	*	*
.	.	.
=6	=6	=6
*ped	*	*
!	!LO:TUP:a	!
4FF#	12g#L\	.
.	12a	.
.	12g#J	.
4A 4F# 4C#	4f#)\	.
4A 4F# 4D#	(4cc#	.
*Xped	*	*
.	.	.
=7	=7	=7
*ped	*	*
!	!LO:TUP:a	!
4GG#	12f#L\	.
.	12g#	.
.	12f#J	.
4c# 4G# 4E	4e)	>
4B# 4G# 4F#	(>8d#L	.
*Xped	*	*
.	.	]
.	(<8g#J	.
=8	=8	=8
*	*^	*
*ped	*	*	*
.	.	8qg#	.
4CC#	4ryy	[4c#^)	.
4B 4E# 4C#	8ryy	8c#L])	<
.	(>8bL	8d	.
4B 4G# 4C#	8a	8c#	.
*Xped	*	*	*
.	.	.	.
.	8g#J	8e#J	.
*	*v	*v	*
=9	=9	=9
*ped	*	*
4FF#	4f#)	.
4c# 4A 4C#	(>8g#L	.
.	8f#	.
4c# 4A 4C#	8a	.
*Xped	*	*
.	8b#J	.
.	.	[
!!LO:LB:g=original
=10	=10	=10
*ped	*	*
!	!LO:TUP:a	!
4FF#	12ddL	.
.	12ee	.
.	12ddJ	.
4e 4A# 4F#	4cc#)	.
4e 4A# 4F#	(4ff#	.
*Xped	*	*
.	.	.
=11	=11	=11
*ped	*	*
!	!LO:TUP:a	!
4BB	12cc#L	.
.	12dd	.
.	12cc#J	.
4e 4B 4F#	4b)	.
4d 4F#	(4ff#	.
*Xped	*	*
.	.	.
=12	=12	=12
*ped	*	*
!	!LO:TUP:a	!
4FF#	12bL	.
.	12cc#	.
.	12bJ	.
4c# 4F#	4a\)	.
4c# 4A 4D#	(4cc#	.
*Xped	*	*
.	.	.
=13	=13	=13
*^	*	*
!	!	!LO:TUP:a	!
4r	2.E	12f#L\	.
.	.	12g#	.
.	.	12f#J	.
4c# 4A	.	4e\)	.
4c# 4A	.	(4cc#	.
*v	*v	*	*
=14	=14	=14
*ped	*	*
!	!LO:TUP:a	!
4EE	12eL\	<
.	12f#	.
.	12eJ	.
4A 4F#	4d#\)	.
4A 4F#	(4cc#	.
*Xped	*	*
.	.	.
!!LO:LB:g=original
=15	=15	=15
*ped	*	*
4EE	8dnL\	.
.	8b	.
4r	8cc#	.
.	8dd	.
4d 4G# 4E	8cc#	.
*Xped	*	*
.	8bJ	.
=16	=16	=16
*ped	*	*
4AA	8cc#L	.
.	8bJ)	.
.	.	p
4c# 4A 4E	(>4a\	<
4EE	8cc#L	.
*Xped	*	*
.	8ddJ	.
=17	=17	=17
*ped	*	*
4AAA	2ee	.
.	.	[
4e 4A 4Gn	.	.
.	.	>
4e 4A 4Gn	8ff#L	.
*Xped	*	*
.	8eeJ	.
=18	=18	=18
4d# 4A 4F#	4dd#)	.
.	.	]
4d# 4A 4F#	(8bL	<
.	8cc#J	.
4dn 4A 4Fn	4ddn	.
.	.	[
=19	=19	=19
*ped	*	*
4AA	8dL\	.
.	8b	.
4d 4G# 4E	8cc#	.
.	8dd	.
4d 4G# 4E	8cc#	.
*Xped	*	*
.	.	.
.	8bJ	.
!!LO:PB:g=original
=20	=20	=20
*ped	*	*
4AA	8cc#L	.
.	8bJ	.
4c# 4A 4E	4a\)	.
4EE	(8cc#L	.
*Xped	*	*
.	.	.
.	8ddJ	.
=21	=21	=21
*ped	*	*
4AAA	2ee	>
4e 4A 4Gn	.	.
4e 4A# 4G	16ff#LL	.
*Xped	*	*
.	16ee	.
.	16ff#	.
.	16eeJJ	.
=22	=22	=22
*	*^	*
4d# 4B 4F#	4ryy	4dd#)	.
4B 4F#	(8bL	4a	]
.	8cc#J	.	.
4dn^ 4B 4Fn	4ryy	4ddn 4a)	.
=23	=23	=23	=23
4AA	(>8dL	4ryy	.
.	8b	.	.
4d 4B 4E	8cc#	4g#	.
.	8dd	.	.
4d 4G# 4E	8cc#	4e	.
.	8bJ	.	.
*	*v	*v	*
=24	=24	=24
4AA	8cc#L	.
.	8bJ	.
4c# 4A 4E	4a)	.
4B^ 4E#^ 4C#^	(>8g#L	.
.	8aJ	.
!!LO:LB:g=original
=25	=25	=25
*ped	*	*
4FF#	4.f#)	.
4c# 4A 4F# 4C#	.	.
.	(>8g#L	.
4c# 4A 4F# 4C#	8a	.
*Xped	*	*
.	.	.
.	8b#J	.
=26	=26	=26
*ped	*	*
!	!LO:TUP:a	!
4FF#	12ddL	.
.	12ee	.
.	12ddJ	.
4f# 4c# 4A	4cc#)	.
4f# 4c# 4A	(4ff#	.
*Xped	*	*
.	.	.
=27	=27	=27
*ped	*	*
!	!LO:TUP:a	!
(4BB	12cc#L	.
.	12dd	.
.	12cc#J	.
4e 4F#	4ccn)	.
4d 4F#)	(4ff# 4b	.
*Xped	*	*
.	.	.
=28	=28	=28
*ped	*	*
!	!LO:TUP:a	!
4FF#	12bL	.
.	12cc#X	.
.	12bJ	.
4c# 4F#	4a#\)	.
4c# 4F#	(4cc# 4a	.
*Xped	*	*
.	.	.
=29	=29	=29
*ped	*	*
!	!LO:TUP:a	!
(4C#	12aL\	.
.	12b	.
.	12aJ	.
4c# 4E#	4g#)\	.
4B 4E#)	(>4cc#\ 4c#	.
*Xped	*	*
.	.	.
!!LO:LB:g=original
=30	=30	=30
*ped	*	*
!	!LO:TUP:a	!
4FF#	12g#L\	.
.	12a	.
.	12g#J	.
4A	4gn)	.
4c# 4A 4D#	(>4cc# 4f#	.
*Xped	*	*
.	.	<
=31	=31	=31
*	*^	*
*ped	*	*	*
*	*Xtuplet	*	*
4GG#	12f#L	4ryy	.
.	12g#X	.	.
.	12f#J	.	.
4G#	8ryy	8fnL	.
.	4g#^	8e	.
4B# 4G# 4F#	.	8d#	.
*Xped	*	*	*
.	.	.	.
.	8/	[<8g#J	.
=32	=32	=32	=32
*ped	*	*	*
4CC#	4g#^])	8c#L	.
.	.	8dnM	.
4B 4E# 4C#	8ryy	8c#	.
.	(8bL	8d	.
4B 4G# 4C#	8a	8c#	.
*Xped	*	*	*
.	.	.	.
.	8g#J	8e#J	.
.	.	.	[
=33	=33	=33	=33
*ped	*	*	*
4FF#	4f#)	4	f
4c# 4A 4C#	(8g#L	4ryy	.
.	8f#	.	.
4c# 4A 4C#	8a	4ryy	.
*Xped	*	*	*
.	8b#J	.	.
*	*v	*v	*
=34	=34	=34
*ped	*	*
*	*tuplet	*
!	!LO:TUP:a	!
4FF#	12ddL	.
.	12ee	.
.	12ddJ	.
4e 4A# 4F#	4cc#)	.
4e 4A# 4F#	(4ff# 4f#^<	.
*Xped	*	*
.	.	.
!!LO:LB:g=original
=35	=35	=35
*ped	*	*
!	!LO:TUP:a	!
4BB	12cc#L	.
.	12dd	.
.	12cc#J	.
4e 4F#	4ccn)	.
4d 4F#	(4ff# 4b^<	.
=36	=36	=36
!	!LO:TUP:a	!
4FF#	12bL	.
.	12cc#X	.
.	12bJ	.
4c# 4F#	4a#\)	.
4c# 4F#	4cc# 4an^<	.
=37	=37	=37
*^	*	*
4rB	2.D	(>4.f#	>
(4c# 4F#	.	.	.
.	.	8g#L	.
4B) 4F#)	.	8a	.
.	.	8bJ	.
=38	=38	=38	=38
!	!	!LO:TUP:a	!
4r	2.C#	12aL\	.
.	.	12b	.
.	.	12aJ	.
[4B 4F#	.	4g#\	.
4B] 4E#	.	4cc#)	.
=39	=39	=39	=39
4rB	2.D	(>4.f#	p
(4c# 4F#	.	.	.
.	.	8g#L	.
4B) 4F#)	.	8a	.
.	.	8qcc#	.
.	.	8bJ	.
!!LO:LB:g=original
=40	=40	=40	=40
!	!	!LO:TUP:a	!
4r	2.C#	12aL\	.
.	.	12b	.
.	.	12aJ	.
[4B 4F#	.	4g#\	.
!	!	!LO:TX:B:t=ri-te-nu-to.:dur=5q:ext=ud:problem:tekst with extention lines	!
4B] 4E#	.	4cc#)	<
=41	=41	=41	=41
4rB	2.D	(>4.f#	.
(4c# 4F#	.	.	.
.	.	8g#L	.
4B) 4F#)	.	8a	.
.	.	8bJ	.
*v	*v	*	*
=42	=42	=42
4BBB	8cc#L	.
.	8eeJ	.
.	.	[
4f# 4d 4B 4G#	4.dd	.
4r	.	.
.	8f#)	.
=43	=43	=43
*	*^	*
4r	(>8f#L	4	.
.	8e#J	.	.
4CC#'	4.a	4	.
[<4C#	.	4e# 4B	.
.	8g#	.	.
=44	=44	=44	=44
!LO:TX:t=P:problem:pionowy łuk	!	!	!
4e# 4B 4C#]	8a#L/	4ryy	<
.	8b	.	.
4r	8b#	8ryy	.
.	8cc#	4ryy	.
4r	8ee#	.	.
.	8dd# 8bnJ	8ryy	.
.	.	.	[
*	*v	*v	*
=||	=||	=||
!!LO:PB:g=original
=45	=45	=45
*k[f#c#g#d#a#e#]	*k[f#c#g#d#a#e#]	*k[f#c#g#d#a#e#]
!	!LO:TX:B:t=in Tempo	!
(>4FF#	[4cc#/ [4a#	>
4C#	8cc#/] 8a#]L	.
.	8b# 8g##	.
4D#/	8c#)	.
.	16ra	.
.	[16g#Jk	.
=46	=46	=46
4E#	8b 8g#]L	.
.	8a# 8f#	.
4F#	8c#	]
.	16ra	.
.	16a# 16f#Jk	.
4c#)	4a#^ 4en	.
=47	=47	=47
4r	[4f# [4d#	<
*ped	*	*
4BB	8f#] 8d#]L	.
.	8dd# 8b	.
4d# 4B 4F#	8f#	.
*Xped	*	*
.	16r	.
.	[16cc#Jk	.
=48	=48	=48
*ped	*	*
4BBB	8ee# 8cc#]L/	.
.	8f#	.
.	.	[
4d# 4F#	12ff# 12dd#L	.
.	12gg#	.
.	12ff#J	.
4f# 4F#	8ee# 8cc#	.
*Xped	*	*
.	.	.
.	8dd# 8bJ	.
=49	=49	=49
(<4FF#	[4cc#/ [4a#	>
4C#	8cc#] 8a#]L	.
.	8b# 8g##	.
4D#	8c#	.
.	16ra	.
.	[16g#Jk	.
!!LO:LB:g=original
=50	=50	=50
!	!LO:TX:b:t=P:problem:konec łuku na górze	!
4E#	8b 8g#]L	.
.	8a# 8f#	.
4F#	8c#	]
.	16ra	.
.	(>16a# 16f#Jk	.
4c#)	4an^ 4d#^	.
=51	=51	=51
4r	[4g# [>4f# [4B#	.
*ped	*	*
(4GG#'	8g#] 8f#] 8B#]L	<
.	8b#)	.
4A# 4G#	(>8g# 8f#	.
*Xped	*	*
.	16r	.
.	16cc#Jk	.
=52	=52	=52
4Bn 4G#	8cc##L/	.
.	8dd#	.
4B# 4G#	8g# 8f#	.
.	8ff#	[
4c# 4G# 4C#)	8ee#^ 8e#)	.
.	16r	.
.	(>16a#Jk	.
=53	=53	=53
*	*^	*
*ped	*	*	*
(>4GG#'	[>4a#	4r	.
4d# 4G#	12a#L]	4f#	.
.	12b#	.	.
.	12a#J)	.	.
4A# 4G#	(>8g# 8f#L	4ryy	.
*Xped	*	*	*
.	16r	.	.
.	16cc#Jk	.	.
=54	=54	=54	=54
4Bn 4G#	8cc##L	4ryy	.
.	8dd#	.	.
4B# 4G#	8g#	4f#	.
.	8ff#	.	.
4c#^ 4G# 4C#)	8ee# 8e#)	4ryy	.
.	16r	.	.
.	(>16dd# 16bJk	.	.
*	*v	*v	*
!!LO:LB:g=original
=55	=55	=55
(>4FF#	[4dd#/ [4b	>
4C#	8dd#] 8b]L	.
.	8cc# 8a#	.
.	.	]
4D#/	8c#	.
.	16ra	.
.	[16g##Jk	.
=56	=56	=56
4E#	8b# 8g##X]L	.
.	8bn 8g#	.
4F#	8c#)	.
.	16ra	.
.	(>16a# 16f#Jk	.
4c#)	4a#^ 4en^	.
=57	=57	=57
4r	[4f# [4d#)	<
*ped	*	*
4BB	(>8f#L]	.
.	8dd# 8b	.
4d# 4F#	8f#	.
*Xped	*	*
.	16r	.
.	[16cc#Jk	.
.	.	[
=58	=58	=58
*ped	*	*
4BBB	8ee# 8cc#]L/	>
.	8f#	.
4d# 4F#	12ff# 12dd#L	.
.	12gg#	.
.	12ff#J	.
4f# 4F#	8ee# 8cc#	.
*Xped	*	*
.	8dd# 8bJ	.
.	.	]
=59	=59	=59
(>4FF#	[4cc#/ [4a#	>
4C#	8cc#] 8a#]L	.
.	8b# 8g##	.
4D#/	8c#)	.
.	16ra	.
.	(>[16g#Jk	]
!!LO:LB:g=original
=60	=60	=60
4E#	8b 8g#]L	.
.	8a# 8f#	.
4F#	8c#)	.
.	16ra	.
.	(>16a# 16f#Jk	.
4c#)	4an 4d#^	.
=61	=61	=61
4r	[4g# [>4f# [4B#	.
*ped	*	*
4GG#	8g#] 8f#] 8B#]L	<
.	16r	.
.	16b#k)	.
4A# 4G#	(>8g# 8f#	.
*Xped	*	*
.	16r	.
.	16cc#Jk	.
=62	=62	=62
*	*^	*
4Bn 4G#	8cc##L	4ryy	.
.	.	.	[
.	8dd#	.	.
4B# 4G#	8g#	4f#	.
.	8ff#	.	.
4c#^ 4G# 4C#	8ee# 8e#)	4ryy	.
.	16r	.	.
.	(>16a#Jk	.	.
=63	=63	=63	=63
*ped	*	*	*
4GG#	[4a#	4r	.
4d# 4G#	12a#L]	4f#	<
.	12b#	.	.
.	12a#J	.	.
4A# 4G#	8g# 8f#L)	4ryy	.
*Xped	*	*	*
.	16r	.	.
.	(>16cc#Jk	.	.
=64	=64	=64	=64
4Bn 4G#	8cc##L	4ryy	.
.	.	.	[
.	8dd#	.	.
4B# 4G#	8g#	4f#	.
.	8ff#J	.	.
8c# 8G# 8C#L	8ee#^ 8e#)	4ryy	.
8BBnJ	8r	.	.
!!LO:LB:g=original
=65	=65	=65	=65
*ped	*	*	*
4AA#)	(4.gg#	4r	>
4A#	.	4cc## 4g#	.
.	8ff##L	.	.
4d# 4A# 4D#	8dd#	4cc# 4f##	.
*Xped	*	*	*
.	8ee#J	.	.
=66	=66	=66	=66
*ped	*	*	*
4GG#	12ff#L	4r	.
.	12gg#	.	.
.	12ff#J	.	.
4G#	8ee#L	4b# 4f#	.
.	8dd#	.	.
4c# 4G# 4C#	8ee#	4bn 4e#	.
*Xped	*	*	*
.	.	.	.
.	8cc#J	.	.
=67	=67	=67	=67
*ped	*	*	*
4FF#	4.een	4r	.
4F#	.	4a#X 4e#	.
.	8dd#L	.	.
4B 4F# 4BB	8bn	4a# 4d#	.
*Xped	*	*	*
.	.	.	.
.	8cc#J	.	.
=68	=68	=68	=68
*ped	*	*	*
*	*Xtuplet	*	*
4EEn	12ddnL	4r	]
.	12een	.	.
.	12ddJ	.	.
4En	8cc#L	4g# 4dn	.
.	8b#J	.	.
4An 4E 4AAn^	4cc#)	4an 4c#	.
*Xped	*	*	*
.	.	.	.
=69	=69	=69	=69
*ped	*	*	*
4DD#	(4.cc#	4r	>
4D#	.	4f## 4c#	.
.	8b#L	.	.
4G# 4D# 4GG#	8g#	4f# 4B#	.
*Xped	*	*	*
.	8a#J	.	.
!!LO:PB:g=original
=70	=70	=70	=70
*ped	*	*	*
*	*tuplet	*	*
4CC#	12bnL	4r	.
.	12cc#	.	.
.	12bJ	.	]
4C#	8a#L	4e# 4Bn	.
.	8g#	.	.
4F# 4C# 4FF#	8a#	4A#^	.
*Xped	*	*	*
.	.	.	.
.	8f#J	.	.
=71	=71	=71	=71
*ped	*	*	*
4F#/ 4BB	4d#)	4B	sf
4F#/ 4BB	(8f#L	4d#	p
.	8g#	.	.
4F# 4FF#	8a#	4d#	.
*Xped	*	*	*
.	8bJ	.	.
=72	=72	=72	=72
4F#/ 4BB	12d#L	4d#	.
.	12cc#	.	.
.	12bJ	.	.
4F#/ 4C#	8a#L	4c#	.
.	8g#	.	.
4F# 4FF#	8a#	4c#	.
.	8f#J	.	.
=73	=73	=73	=73
4F#/ 4BB	8d#L	4d#	.
.	8e#	.	.
4F#/ 4BB	8f#	4d#	.
.	8g#	.	.
4F# 4FF#	8a#	4d#	.
.	8bJ	.	.
=74	=74	=74	=74
4F#/ 4BB	12d#L	4d#	.
.	12cc#	.	.
.	12bJ	.	.
4E#/ 4BB	8a#L	4d#	.
.	8g#J	.	.
4E#/ 4AA#	4a#)	4c##^	.
=75	=75	=75	=75
*ped	*	*	*
4AAA#	(4.gg#	4r	>
4A#	.	4cc## 4g#	.
.	8ff##L	.	.
4d# 4A# 4D#	8dd#	4cc# 4f##	.
*Xped	*	*	*
.	.	.	.
.	8ee#J	.	.
!!LO:LB:g=original
=76	=76	=76	=76
4A# 4AA#	12ff#L	4cc# 4f#X	.
.	12gg#	.	.
.	12ff#J	.	.
4G#\ 4GG#	8ee#L	4b# 4f#	.
.	8dd#	.	.
4c# 4G# 4C#	8ee#	4bn 4e#	.
.	8cc#J	.	.
=77	=77	=77	=77
4G#\ 4GG#	4.een	4b 4e#	.
4F#\ 4FF#	.	4a# 4e#	.
.	8dd#L	.	.
4B 4F# 4BB	8b	4an 4d#	.
.	8cc#J	.	.
=78	=78	=78	=78
4F#\ 4FF#	12ddnL	4an 4dn	.
.	12een	.	.
.	12ddJ	.	.
4En\ 4EEn	8cc#L	4g# 4dn	]
.	8b#J	.	.
4An 4E 4AAn	4cc#	4a^ 4c#^	.
=79	=79	=79	=79
4E#X\ 4EE#X	4.cc#	4g# 4c#	>
4D#\ 4DD#	.	4f## 4c#	.
.	8b#L	.	.
4G#\ 4D# 4GG#	8g#	4f# 4B#	.
.	8a#XJ	.	.
=80	=80	=80	=80
4D#\ 4DD#	12bnL	4f#	.
.	12cc#	.	.
.	12bJ	.	.
4C#\ 4CC#	8a#L	4e# 4Bn	]
.	8g#	.	.
4F#\ 4C# 4FF#	8a#	4A#^	.
.	8f#J	.	.
!!LO:LB:g=original
=81	=81	=81	=81
4F#\ 4BB	4d#)	4B	sf
.	.	.	p
4F#\ 4BB	(8f#L	4d#	.
.	8g#	.	.
4F#\ 4FF#	8a#	4d#	.
.	8bJ	.	.
=82	=82	=82	=82
4F# 4BB	12d#L	4d#	.
.	12cc#	.	.
.	12bJ	.	.
4F# 4C#	8a#L	4c#	.
.	8g#	.	.
4F#\ 4FF#	8a#	4c#	.
.	8f#J	.	.
=83	=83	=83	=83
4F# 4BB	8d#L	4d#	.
.	8e#	.	.
4F# 4BB	8f#	4d#	.
.	8g#	.	.
4F#\ 4FF#	8a#	4d#	.
.	8bJ	.	.
=84	=84	=84	=84
4F#\ 4FF#	12d#L	4d#	<
.	12cc#	.	.
.	12bJ	.	.
4F# 4BB	8a#L	4d#	.
.	8g#	.	.
4F#\ 4FF#	8a#	4c#	.
.	8f#J	.	.
=85	=85	=85	=85
4F# 4BB	8a#L	4d#	.
.	8g#	.	.
4F#\ 4FF#	8a#	4c#	.
.	8f#	.	.
4F# 4BB	8a#	4d#	.
.	8g#J	.	.
=86	=86	=86	=86
4F#\ 4FF#	8a#L	4c#	.
.	8f#	.	.
4F# 4BB	8a#	4d#	.
.	8g#	.	.
4F#\ 4FF#	8a#	4c#	.
.	8f#J	.	.
.	.	.	[
!!LO:LB:g=original
=87	=87	=87	=87
4F# 4BB	8anL	4d#	>
.	8g#	.	.
4F#\ 4FF#	8a	4c#	.
.	8f#	.	.
4F# 4BB	8a	4d#	.
.	8g#J	.	.
=88	=88	=88	=88
4F#\ 4FF#	8anL	4c#	.
.	8f#	.	.
4F# 4BB	8a	4d#	.
.	8g#	.	.
4F#\ 4FF#	8a	4c#	.
.	8f#J	.	]
*	*v	*v	*
=89	=89	=89
*ped	*	*
(>4.BBB	(>[2.an )[2.d#	>
8FF#L\	.	.
8BB	.	.
*Xped	*	*
8G#J	.	.
=90	=90	=90
!LO:TUP:a	!	!
12F#L	2.anX] 2.d#]	]
12G#	.	.
12F#J	.	.
4BB\'	.	.
4B')	.	.
=91	=91	=91
*ped	*	*
(>4.EEn	2.an [2.dn	.
8BBL	.	.
8En	.	.
*Xped	*	*
8c#J	.	.
=92	=92	=92
!LO:TUP:a	!	!
12BL	2.g# 2.dnX]	.
12c#	.	.
12BJ	.	.
4En'	.	.
4en')	.	.
!!LO:LB:g=original
=93	=93	=93
*ped	*	*
(4.AAAn	[2.gn 2.dn	.
8EEnL\	.	.
8AAn	.	.
*Xped	*	*
8F#J	.	.
=94	=94	=94
!LO:TUP:a	!	!
12EnL	2.gnX] 2.c#	.
12F#	.	.
12EJ	.	.
4AAn'\	.	.
4An')	.	.
=95	=95	=95
*ped	*	*
(>4.DDn	2.gn 2.cn	.
8AAnL	.	>
8Dn	.	.
*Xped	*	*
8BJ	.	.
=96	=96	=96
*^	*	*
*	*Xtuplet	*	*
4ryy	12AnL	[2.f# 2.cn	.
.	12B	.	.
.	N[>12AJ	.	.
2AN]	4Dn'>	.	.
.	4dn'>)	.	.
*v	*v	*	*
=||	=||	=||
=97	=97	=97
*k[f#c#g#]	*k[f#c#g#]	*k[f#c#g#]
4A &4C#	(>4.f#] 4.c#X)	<
4r	.	.
.	8g#L	.
4r	8a	.
.	8b#J	.
=98	=98	=98
!	!LO:TUP:a	!
2.r	12ddL	.
.	12ee	.
.	12ddJ	.
.	4cc#	.
.	4ff#	.
.	.	[
!!LO:PB:g=original
=99	=99	=99
*	*	*^
!	!LO:TX:B:t=cres_:problem:dynamics with extention lines	!	!
!	!LO:TUP:a	!LO:HP:b=2	!LO:HP:B:t=cres.
(>4.C#	12cc#L	<	<
.	12dd	.	.
.	12cc#J	.	.
.	4b#	.	.
8G#L	.	.	.
8A	4bn	.	.
8B#J	.	.	.
=100	=100	=100	=100
*tuplet	*	*	*
!LO:TUP:a	!LO:TUP:a	!	!
12dL	12bL	.	.
12e	12cc#	.	.
12dJ	12bJ	.	.
4c#	4a#\	.	.
.	.	[	.
4f#	4cc# 4an	.	.
*	*	*v	*v
=101	=101	=101
!LO:TUP:a	!LO:TUP:a	!
12c#L	12aL\	.
12d	12b	.
12c#J	12aJ	.
4B#	4g#	.
4Bn	4cc#^> 4c#	.
=102	=102	=102
!LO:TUP:a	!LO:TUP:a	!
12BL	12g#L\	.
12c#	12a	.
12BJ	12g#J	.
4A#	4f##\	.
4c# 4An	4cc#^\ 4f#	.
=103	=103	=103
*^	*^	*
!	!	!	!LO:TUP:a	!
2G#)	4r	4.ryy	12f#L\	.
.	.	.	12g#	.
.	.	.	12f#J	.
*ped	*	*	*	*
.	4GG#/	.	8e#L	.
.	.	4g#^	8enJ	.
4ryy	4B# 4F#	.	4d	.
*Xped	*	*	*	*
.	.	[8g#^	.	.
*v	*v	*	*	*
!!LO:LB:g=original
=104	=104	=104	=104
*ped	*	*	*
4CC#	4.g#]	8c#L	.
.	.	8dM	.
4B 4E# 4C#	.	8c#	.
.	8bL	8d	.
4B 4G# 4C#	8a	8c#	.
*Xped	*	*	*
.	.	.	.
.	8g#J	8e#J	.
.	.	.	[
*	*v	*v	*
=105	=105	=105
*ped	*	*
4FF# 4FFF#	4f#	f
4c# 4A 4C#	8g#L	.
.	8f#	.
4c# 4A 4C#	8a	.
*Xped	*	*
.	.	.
.	8bJ	.
=106	=106	=106
*ped	*	*
!	!LO:TUP:a	!
4FF#	12ddL	.
.	12ee	.
.	12ddJ	.
4e 4A# 4F#	4cc#)	.
4e 4A# 4F#	(4ff#^<	.
*Xped	*	*
.	.	.
=107	=107	=107
*ped	*	*
!	!LO:TUP:a	!
4BB	12cc#L	.
.	12dd	.
.	12cc#J	.
4e 4F#	4ccn)	.
*Xped	*	*
4d 4F#	(4ff#^< 4b	.
=108	=108	=108
*ped	*	*
!	!LO:TUP:a	!
4FF#	12bL	.
.	12cc#X	.
.	12bJ)	.
4d 4F#	(>4a#\	.
4c# 4F#	4cc#^< 4an	.
*Xped	*	*
.	.	.
!!LO:LB:g=original
=109	=109	=109
*^	*	*
!	!	!LO:TX:B:t=dim_:problem:dynamics with extention lines	!
!	!	!	!LO:HP:B:t=dim
4rB	2.D	4.f#	>
(4c# 4F#	.	.	.
.	.	8g#L	.
4B) 4F#)	.	8a	.
.	.	8bJ	.
=110	=110	=110	=110
4r	2.C#	12aL	.
.	.	12b	.
.	.	12aJ	.
[4B 4F#	.	4g#)	.
4B] 4E#	.	(>4cc#	.
=111	=111	=111	=111
.	.	.	]
4r	2.D	4.f#	p
(4c# 4F#	.	.	.
.	.	8g#L	.
4B) 4F#)	.	8a	.
.	.	8qcc#	.
.	.	8bJ	.
=112	=112	=112	=112
*	*	*Xtuplet	*
4r	2.C#	12aL	.
.	.	12b	.
.	.	12aJ	.
(4B 4F#	.	4g#)	.
4B) 4E#)	.	(>4cc#/	.
=113	=113	=113	=113
!	!	!LO:TX:a:B:t=ritenuto.	!
4rB	2.D	4.f#	.
(4c# 4F#	.	.	.
.	.	8g#L	<
4B) 4F#)	.	8a	.
.	.	8bJ	.
*v	*v	*	*
=114	=114	=114
*ped	*	*
4GG#	8cc#L	.
.	8eeJ	.
4f# 4B 4G#	4.dd	[
4r	.	.
*Xped	*	*
.	8f#)	.
!!LO:LB:g=original
=115	=115	=115
*	*^	*
!	!LO:TX:a:B:t=in Tempo.	!	!
4r	(8f#L	4r	<
.	8e#J	.	.
(<4C#	4.a	4B	.
*	*	*	*^
4C##)	.	4e# 4B	.	<
*	*	*	*v	*v
.	8g#	.	.
=116	=116	=116	=116
4r	8g#L	4r	.
.	8f#J	.	.
4D	4.b	4cn	.
4D#	.	4f# 4c	.
.	8a)	.	.
=117	=117	=117	=117
4E	(8f##L	4B#	.
.	8g#	.	.
4EE	8a	4c#	.
.	8g#	.	.
4EE#	8cc#	4g# 4d	.
.	8bnJ	.	.
=118	=118	=118	=118
[4FF#	8b 8f# 8dL	4ryy	.
.	8a# 8c#J	.	.
4F# 4FF#]	4.dd	4a# 4e	.
4F## 4FF##	.	4an 4e	.
.	8cc#	.	.
.	.	.	[
=119	=119	=119	=119
*ped	*	*	*
4G# 4GG#	8.cc# 8.g# 8.eL	4ryy	f>
.	16b# 16g# 16d#Jk	.	.
4f# 4d# 4G#	4.gg#	4b# 4g#	.
4f# 4d# 4G#	.	4b# 4g#	.
*Xped	*	*	*
.	8ff#	.	.
!!LO:LB:g=original
=120	=120	=120	=120
*ped	*	*	*
4C# 4CC#	4.ff#	4r	.
4g# 4c# 4G#	.	4bny 4e#	.
.	8ee#L	.	.
4g# 4c# 4G#	8b	4e#	]
*Xped	*	*	*
.	8cc#J	.	.
=121	=121	=121	=121
*^	*	*	*
4ryy	4r	8eeL	4r	.
.	.	8dd#J	.	.
*	*	*	*	*^
*	*	*tuplet	*	*	*
!	!	!	!LO:TX:B:t=dim_:problem:dynamics with extention lines	!	!
!	!	!	!	!LO:HP:B:t=dim	!
4ryy	(>4B 4C#	12ddnL	4e#	>	.
.	.	12ee	.	.	.
.	.	12ddJ	.	.	.
8AL	4C#	8cc#L	4e#	.	.
8G#J	.	8bJ	.	.	.
*v	*v	*	*	*	*
*	*v	*v	*	*
=122	=122	=122	=122
.	8qc#	.	.
*ped	*	*	*
!	!	!	!LO:HP:b=2
8FF#L	8cc# 8aL	.	<
8C#J	8b 8g#J	.	.
4c#	4a 4f#)	.	.
8.AL	4r	.	[
*Xped	*	*	*
16F#Jk	.	]	.
*	*	*v	*v
=123	=123	=123
*	*^	*
8F#L	4ryy	4r	<
8E#J	.	.	.
4.A	8ryy	8rd	.
.	8c#L	4c#	.
.	8f#	.	.
8G#	8g# 8e#J	8ryy	.
=124	=124	=124	=124
8G#L	8b 8e#L	4c#	.
8F#J	8a 8f#J)	.	.
4.B	8r	8ryy	.
.	(>8dL	4.ryy	.
.	8g#	.	.
8A)	8a 8f#J	.	.
!!LO:PB:g=original
=125	=125	=125	=125
(8F##L	8cc#L	4e# 4d	.
8G#	8bJ)	.	.
8A	8r	8ryy	.
8G#	(8e#XL	4.e#X	.
8c#	8a	.	.
8BJ	8b 8g#J	.	.
=126	=126	=126	=126
8BL	8ddL	2.gn 2.en	.
8A#XJ	8cc#)J	.	.
4.d	8r	.	.
.	(>16r	.	.
.	16bKL	.	.
.	8b	.	.
!	!	!	!LO:HP:b=2
8c#)	8a#XJ	.	<
=127	=127	=127	=127
(8c#L	8anL	4f# 4d#X	.
8B#XJ	8g#XXJ)	.	.
*	*	*	*^
4.g#	4r	2ryy	.	f
*	*	*	*v	*v
.	4r	.	.
8f#	.	.	.
.	.	.	[
*	*v	*v	*
=128	=128	=128
8.f#L)	8r	.
.	16r	.
16e#XJk	(>16g#	.
(>4.e#	4.gg#/ 4.g#	.
8d#X	8ff#/ 8b#X 8g#	.
=129	=129	=129
8.d#XL	8.ff#/L 8.b#X 8.g#	.
16c#Jk	16ee#XJk 16cc# 16g#	.
4.c#	4.ee# 4.g# 4.e#X	>
8B	8dd 8g# 8e#	]
=130	=130	=130
8AL	8ddL 8a 8fn	.
.	8qee/	.
8G#J	8ddJ 8b 8en	.
4A	4cc# 4a 4e	.
4D#X	4cc#^ [>4a [4f#X	.
!!LO:LB:g=original
=131	=131	=131
8D#XL]	8bL 8a] 8f#]	.
.	8qcc#/	.
8E#XJ	8bJ 8g# 8c#	.
4F#	4a 4c#	.
4B [4BB	4gn^ [4d	.
=132	=132	=132
*^	*^	*
2Gn	]8BBL	2gn	8dL]	.
.	.	.	8qf#/	.
.	8CnJ	.	8eJ	.
.	4E	.	4cn	>
4ryy	4D	4ryy	4B\	.
=133	=133	=133	=133	=133
8G#XL	4D]	4f#	8BL	.
8AJ	.	.	8B#XJ	.
[2C#XX	4ryy	4a [4f# 4c#	4ryy	.
.	4CC#	4g# 4B#	8f#L]	.
.	.	.	8e#XJ	.
*v	*v	*	*	*
=134	=134	=134	=134
4C#] 4FF#)	4ryy	)4f# 4A#X	.
4r	(>2cc#^	4rc	.
4r	.	8rc	.
.	.	8e	.
=135	=135	=135	=135
*	*	*^	*
4r	[2cc#	8d#XL	2ryy	p
.	.	8e#X	.	.
4F# 4BB	.	8f#	.	.
.	.	8g#	.	.
4F#\ 4FF#	8cc#L]	8a#X	4d#	.
.	8bJ	8bJ	.	.
*	*	*v	*v	*
=136	=136	=136	=136
4F# 4BB	12d#L	4d#X	.
.	12cc#	.	.
.	12bJ	.	.
4F# 4C#	8aL	4c#	.
.	8g#	.	.
4F#\ 4FF#	8a	4c#	.
.	8f#J	.	.
!!LO:LB:g=original
=137	=137	=137	=137
4F# 4BB	8d#L	>4d#X	.
.	8e#X	.	.
4F# 4BB	8f#	4d#	.
.	8g#	.	.
4F#\ 4FF#	8a#X	4d#	.
.	8bJ	.	.
=138	=138	=138	=138
4F# 4BB	12d#L	4d#X	.
.	12cc#	.	.
.	12bJ	.	.
4F# 4BB	8a#XL	4c#	.
.	8g#J	.	.
4F#\ 4FF#	4a#)	4c#^	.
=139	=139	=139	=139
4F# 4BB	(8d#L	>4d#X	.
.	8e#X	.	.
4F# 4BB	8f#	4d#	.
.	8g#	.	.
4F#\ 4FF#	8a#X	4d#	.
.	8bJ	.	.
=140	=140	=140	=140
4F# 4BB	12d#L	4d#X	.
.	12cc#	.	.
.	12bJ	.	.
4F# 4C#	8a#XL	4c#	.
.	8g#	.	.
4F#\ 4FF#	8a#	4c#	.
.	8f#J	.	.
=141	=141	=141	=141
4F# 4BB	8d#L	4d#X	.
.	8e#X	.	.
4F# 4BB	8f#	4d#	.
.	8g#	.	.
4F#\ 4FF#	8a#X	4d#	.
.	8bJ	.	.
=142	=142	=142	=142
4F# 4BB	12d#L	4d#X	.
.	12cc#	.	.
.	12bJ	.	.
4F# 4BB	8a#XL	4d#	.
.	8g#	.	.
4F#\ 4FF#	8a#	4c#	.
.	8f#J	.	.
!!LO:LB:g=original
=143	=143	=143	=143
4F# 4BB	8a#XL	4d#X	.
.	8g#	.	.
!	!LO:TX:B:t=accell:dur=4q:ext=ud:problem:tekst with extention lines	!	!
4F#\ 4FF#	8a#	4c#	.
.	8f#	.	.
4F# 4BB	8a#	4d#	.
.	8g#J	.	.
=144	=144	=144	=144
4F#\ 4FF#	8a#XL	4c#	.
.	8f#	.	.
4F# 4BB	8a#	4d#X	.
!	!LO:TX:B:t=dim_:problem:dynamics with extention lines	!	!
!	!	!	!LO:HP:B:t=dim
.	8g#	.	>
4F#\ 4FF#	8a#	4c#	.
.	8f#J	.	.
=145	=145	=145	=145
4F# 4BB	8a#XL	4d#X	.
.	8g#	.	.
4F#\ 4FF#	8a#	4c#	.
.	8f#	.	.
4F# 4BB	8a#	4d#	.
.	8g#J	.	.
=146	=146	=146	=146
4F#\ 4FF#	8a#XL	4c#	.
.	8f#	.	.
4F# 4BB	8a#	4d#X	.
.	8g#J	.	.
8F#\ 8FF#	)8a# 8c#	4ryy	]fz
8r	8r	.	.
*	*v	*v	*
=147	=147	=147
*^	*	*
4rF	4CC#	8r	.
.	.	16r	.
!	!	!LO:TX:a:B:t=sostenuto.	!
!	!	!LO:TX:a:B:t=a Tempo.	!
.	.	(>16d#X	<
4rF	4rFF	4.d#	.
(4B 4E#X	4C# 4CC#	.	.
.	.	8e#X	.
=148	=148	=148	=148
4A#X 4F#)	4C# 4FF#	8.e#XL	.
.	.	16f#Jk	.
4r	4ryy	4.f#	.
.	.	.	[
(4A# 4F#	4C# 4CC#	.	.
.	.	8e#	.
!!LO:LB:g=original
=149	=149	=149	=149
4B 4E#X)	4C# 4GG#	>8d#XmL	.
.	.	8c#J	.
4rA	4rAA	4.d#	.
(4B 4E#	4C# 4CC#	.	.
.	.	8e#X	.
=150	=150	=150	=150
4A#X 4F#)	4C# 4FF#	4f#	.
4rA	4rAA	[2d#X	>
(4A# 4F#	4C# 4FF#	.	.
.	.	.	]
=151	=151	=151	=151
4B 4E#X)	4C# 4CC#	8.d#L]	<
.	.	16d#XJk	.
4rA	4rAA	4.d#	.
4B 4E#	4C# 4CC#	.	.
.	.	8e#X	.
.	.	.	[
=152	=152	=152	=152
4A#X 4E#X	4C##X 4CC##X	8.g#L	.
.	.	16f#Jk	.
4A# 4F#	4D#X 4DD#X	4.f#	.
4c#X 4F#	4AA#X 4AAA#X	.	.
.	.	8e#X	<
=153	=153	=153	=153
4G# 4F#	4BB 4BBB	8d#XmL	.
.	.	8c#J	.
4B 4F#	4GG# 4GGG#	4d#	.
4B 4E#X	4CC# 4CCC#	4e#X	.
.	.	.	[
=154	=154	=154	=154
4B 4E#X	4CC# 4CCC#	8.g#L	>
.	.	16f#Jk	.
4A#X 4F#	4FF# 4FFF#	4f#)	.
.	.	.	]
!	!	!LO:TX:a:B:t=Fine.	!
4r	4ryy	4r	.
*v	*v	*	*
==	==	==
*-	*-	*-
!!!RDF**kern: > = above
!!!RDF**kern: < = below
!!!RDF**kern: N = linked
!!!RDF**dynam: < = "cres.", fontstyle = "bold"
!!!RDF**dynam: > = "dim.", fontstyle = "bold"
!!!ENC: Mateusz Mrugas
!!!END: 2018-06-06
!!!EED: Leszek Kubiak
!!!EST: revision finished 2018-06-11
!!!EED2: Marta Lawrence
!!!EST2: revision finished 2019-05-24
!!!rism-genre: Mazurka
!!!rism-key: C minor
!!!rism-opus: op.  56, no. 3
!!!rism-title: Mazurka in C minor op.  56, no. 3
!!!rism-permalink: https://opac.rism.info/search?id=1001007671&View=rism
!!!rism-773a-OPR: 1001007620
!!!rism-parent-permalink: https://opac.rism.info/search?id=1001007620&View=rism
